X:0239
T:Loch Ness.
M:C
L:1/8
Q:1/4=120
I: :: ::
Z:Jack Campin * www.campin.me.uk * 2009
K:B Minor
B|B/B/B b2 a>(fe)f|d(AA)F   A>BdA   |\
  B/B/B b2 a>(fe)f|d<Bc>A   B/B/B B:|
c|B>c   de f>edf  |A/A/A AF d(AA)d  |\
  B>c   de faef   |d<(Bc>)A B/B/B B:|

